X:030
U: ~ = !turn!
%%topmargin 3cm
T:Chorus Reel
B:Traditional Irish Fiddle Tunes. Randy Miller and Jack Perron.
Z:Transcribed by Ralph Palmer
R:Reel
M:C|
L:1/8
K:G
z2 | JF3 G ABAG | FDFG A2 d2 | JF3 G ABAG | ECEF G2 :|
Bc | dBcA BGFG | Adcd A2 Bc | dBcA BGFG | AcBA G2 Bc |
dBcA BGFG | Ac (3.c.c.c efge | dBcA BGFG | AcBA G2 ag ||
fd (3.d.d.d fd (3.d.d.d | fdfg abag | fd (3.d.d.d fd (3.d.d.d | cdef g2 ag |
fd (3.d.d.d fd (3.d.d.d | fdfg abag | {/f}g2 gf gage | cdef g2 |]
/e}dcde gdAF | {/A}GFGA BcdB | AdcB ((3.A.B.A) ((3.G.F.E) | F2 D2 D2 :|]
